X:248
T:La Marianne
M:3/4
L:1/8
K:G
|:\
"G"G2B2G2 | "Bm"d6 | "C"c2e2c2 | "D7"B4A2 |\
"G"G2B2G2 | "Bm"d6 | "C"c2e2c2 |1 "D7"A6 |2 "D7"d6 :|
|:\
"Am"c2ecAc | "G"B2dBGB | "D7"A2cAFA | "G"G2BGBd |\
"Am"c2ecAc | "G"B2dBGB | "D7"A2cAFA | "G"G6 :|
